svgs/sharp-thin/calendar-check.svg

<svg xmlns="http://www.w3.org/2000/svg" viewBox="0 0 448 512"><!--! Font Awesome Pro 6.6.0 by @fontawesome - https://fontawesome.com License - https://fontawesome.com/license (Commercial License) Copyright 2024 Fonticons, Inc. --><path d="M128 8l0-8L112 0l0 8 0 56L16 64 0 64 0 80l0 96 0 16L0 496l0 16 16 0 416 0 16 0 0-16 0-304 0-16 0-96 0-16-16 0-96 0 0-56 0-8L320 0l0 8 0 56L128 64l0-56zM16 192l416 0 0 304L16 496l0-304zM112 80l0 40 0 8 16 0 0-8 0-40 192 0 0 40 0 8 16 0 0-8 0-40 96 0 0 96L16 176l0-96 96 0zM333.7 285.7l5.7-5.7L328 268.7l-5.7 5.7L208 388.7l-66.3-66.3-5.7-5.7L124.7 328l5.7 5.7 72 72 5.7 5.7 5.7-5.7 120-120z"/></svg>

<svg xmlns="http://www.w3.org/2000/svg" viewBox="0 0 448 512"><!--! Font Awesome Pro 6.5.2 by @fontawesome - https://fontawesome.com License - https://fontawesome.com/license (Commercial License) Copyright 2024 Fonticons, Inc. --><path d="M128 8V0H112V8 64H16 0V80v96 16V496v16H16 432h16V496 192 176 80 64H432 336V8 0H320V8 64H128V8zM16 192H432V496H16V192zM112 80v40 8h16v-8V80H320v40 8h16v-8V80h96v96H16V80h96zM333.7 285.7l5.7-5.7L328 268.7l-5.7 5.7L208 388.7l-66.3-66.3-5.7-5.7L124.7 328l5.7 5.7 72 72 5.7 5.7 5.7-5.7 120-120z"/></svg>
